Yaru++/actions/16/package-available-new.svg

<svg height="16" width="16" xmlns="http://www.w3.org/2000/svg">
  <path d="m5.3261719 0c-1.67759.0195-2.9064963-.04015813-3.9101563.51367188-.50182998.27685999-.89762747.74519812-1.11718748 1.33007812-.21956.58488-.29882812 1.27944-.29882812 2.15625v8c0 .87681.07924813 1.57137.29882812 2.15625.21956001.58488.61535751 1.053218 1.11718748 1.330078 1.00366.55376 2.2325663.494242 3.9101563.513672h.0039062 5.3398439.003906c1.67759-.0195 2.904543.040158 3.908203-.513672.50183-.27686.897628-.745198 1.117188-1.330078.21998-.58488.300781-1.27944.300781-2.15625v-8c0-.87681-.079248-1.57136-.298828-2.15625-.21955-.58488-.615358-1.05319812-1.117188-1.33007812-1.00366-.55379-2.232556-.49431188-3.910156-.51367188h-.003906-2.0039064-3.3359375zm2.8203125 3.6582031 1.2636718 2.8789063 3.0898438.5917968-2.347656 2.0917969.392578 3.1210939-2.716797-1.585938-2.8457031 1.337891.6699219-3.0742188-2.1523438-2.2929687 3.1289062-.3125z" fill="#ffda64"/>
</svg>

<svg xmlns="http://www.w3.org/2000/svg" width="16" height="16" version="1.1">
 <g transform="translate(-212.00006,-280)">
  <path style="fill:#ffda64" d="M 5.3261719 0 C 3.6485819 0.0195 2.4196756 -0.040158125 1.4160156 0.51367188 C 0.91418562 0.79053187 0.51838813 1.25887 0.29882812 1.84375 C 0.079268125 2.42863 0 3.12319 0 4 L 0 12 C 0 12.87681 0.079248125 13.57137 0.29882812 14.15625 C 0.51838813 14.74113 0.91418563 15.209468 1.4160156 15.486328 C 2.4196756 16.040088 3.6485819 15.98057 5.3261719 16 L 5.3300781 16 L 10.669922 16 L 10.673828 16 C 12.351418 15.9805 13.578371 16.040158 14.582031 15.486328 C 15.083861 15.209468 15.479659 14.74113 15.699219 14.15625 C 15.919199 13.57137 16 12.87681 16 12 L 16 4 C 16 3.12319 15.920752 2.42864 15.701172 1.84375 C 15.481622 1.25887 15.085814 0.79055188 14.583984 0.51367188 C 13.580324 -0.040118125 12.351428 0.01936 10.673828 0 L 10.669922 0 L 8.6660156 0 L 5.3300781 0 L 5.3261719 0 z M 8.1464844 3.6582031 L 9.4101562 6.5371094 L 12.5 7.1289062 L 10.152344 9.2207031 L 10.544922 12.341797 L 7.828125 10.755859 L 4.9824219 12.09375 L 5.6523438 9.0195312 L 3.5 6.7265625 L 6.6289062 6.4140625 L 8.1464844 3.6582031 z" transform="translate(212.00006,280)"/>
 </g>
</svg>
